X: 16446
T: Hag At The Spinning Wheel, The
R: jig
M: 6/8
K: Gmajor
c|BAG Afd|Bgd Afd|Bgd AFD|EFG ABc|
BAG AFD|~D3 AFD|ded cAF|AGF G2c|

